src/xmb/monochrome/input_BIND_ALL.svg

<?xml version="1.0" encoding="UTF-8" standalone="no"?>
<!-- Created with Inkscape (http://www.inkscape.org/) -->

<svg
   xmlns:dc="http://purl.org/dc/elements/1.1/"
   xmlns:cc="http://creativecommons.org/ns#"
   xmlns:rdf="http://www.w3.org/1999/02/22-rdf-syntax-ns#"
   xmlns:svg="http://www.w3.org/2000/svg"
   xmlns="http://www.w3.org/2000/svg"
   xmlns:sodipodi="http://sodipodi.sourceforge.net/DTD/sodipodi-0.dtd"
   xmlns:inkscape="http://www.inkscape.org/namespaces/inkscape"
   id="svg4152"
   version="1.1"
   inkscape:version="0.92.3 (2405546, 2018-03-11)"
   width="64"
   height="64"
   xml:space="preserve"
   sodipodi:docname="input_BIND_ALL.svg"
   inkscape:export-filename="/home/alfrix/Escritorio/assets/xmb/monochrome/png/input_BIND_ALL.png"
   inkscape:export-xdpi="384"
   inkscape:export-ydpi="384"><metadata
     id="metadata4158"><rdf:RDF><cc:Work
         rdf:about=""><dc:format>image/svg+xml</dc:format><dc:type
           rdf:resource="http://purl.org/dc/dcmitype/StillImage" /><dc:title /></cc:Work></rdf:RDF></metadata><defs
     id="defs4156"><clipPath
       clipPathUnits="userSpaceOnUse"
       id="clipPath4166"><path
         d="M 0,64 64,64 64,0 0,0 0,64 z"
         id="path4168"
         inkscape:connector-curvature="0" /></clipPath></defs><sodipodi:namedview
     pagecolor="#808080"
     bordercolor="#666666"
     borderopacity="1"
     objecttolerance="10"
     gridtolerance="10"
     guidetolerance="10"
     inkscape:pageopacity="0"
     inkscape:pageshadow="2"
     inkscape:window-width="1024"
     inkscape:window-height="697"
     id="namedview4154"
     showgrid="false"
     inkscape:zoom="5.6568542"
     inkscape:cx="32.460345"
     inkscape:cy="23.63742"
     inkscape:window-x="0"
     inkscape:window-y="0"
     inkscape:window-maximized="1"
     inkscape:current-layer="g4160"><inkscape:grid
       type="xygrid"
       id="grid836" /></sodipodi:namedview><g
     id="g4160"
     inkscape:groupmode="layer"
     inkscape:label="Libretro - Pad"
     transform="matrix(1.25,0,0,-1.25,0,64)"><path
       style="color:#000000;clip-rule:nonzero;display:inline;overflow:visible;visibility:visible;opacity:1;isolation:auto;mix-blend-mode:normal;color-interpolation:sRGB;color-interpolation-filters:linearRGB;solid-color:#000000;solid-opacity:1;vector-effect:none;fill:#ffffff;fill-opacity:1;fill-rule:nonzero;stroke:none;stroke-width:1.24721909;stroke-linecap:round;stroke-linejoin:bevel;stroke-miterlimit:0;stroke-dasharray:none;stroke-dashoffset:0;stroke-opacity:1;paint-order:stroke fill markers;color-rendering:auto;image-rendering:auto;shape-rendering:auto;text-rendering:auto;enable-background:accumulate"
       d="M 22 18 L 22 21 L 42 21 L 42 18 L 22 18 z M 22 23 L 22 24 L 42 24 L 42 23 L 22 23 z "
       transform="matrix(0.8,0,0,-0.8,0,51.2)"
       id="rect825" /><path
       style="color:#000000;clip-rule:nonzero;display:inline;overflow:visible;visibility:visible;opacity:1;isolation:auto;mix-blend-mode:normal;color-interpolation:sRGB;color-interpolation-filters:linearRGB;solid-color:#000000;solid-opacity:1;vector-effect:none;fill:#ffffff;fill-opacity:1;fill-rule:nonzero;stroke:none;stroke-width:1.13038826;stroke-linecap:round;stroke-linejoin:bevel;stroke-miterlimit:0;stroke-dasharray:none;stroke-dashoffset:0;stroke-opacity:1;paint-order:stroke fill markers;color-rendering:auto;image-rendering:auto;shape-rendering:auto;text-rendering:auto;enable-background:accumulate"
       d="M 20 22 L 20 25 L 44 25 L 44 22 L 20 22 z M 20 27 L 20 27.75 L 28.457031 27.75 C 29.545568 27.279539 30.742747 27.015625 32 27.015625 C 33.257253 27.015625 34.454432 27.279539 35.542969 27.75 L 44 27.75 L 44 27 L 20 27 z "
       transform="matrix(0.8,0,0,-0.8,0,51.2)"
       id="rect834" /><path
       style="color:#000000;clip-rule:nonzero;display:inline;overflow:visible;visibility:visible;opacity:1;isolation:auto;mix-blend-mode:normal;color-interpolation:sRGB;color-interpolation-filters:linearRGB;solid-color:#000000;solid-opacity:1;vector-effect:none;fill:#ffffff;fill-opacity:1;fill-rule:nonzero;stroke:none;stroke-width:2;stroke-linecap:round;stroke-linejoin:bevel;stroke-miterlimit:0;stroke-dasharray:none;stroke-dashoffset:0;stroke-opacity:1;paint-order:stroke fill markers;color-rendering:auto;image-rendering:auto;shape-rendering:auto;text-rendering:auto;enable-background:accumulate"
       d="M 18 26 L 18 46 L 46 46 L 46 26 L 18 26 z M 32 28.015625 C 36.404015 28.015625 39.984375 31.595987 39.984375 36 C 39.984375 40.404015 36.404015 43.984375 32 43.984375 C 27.595985 43.984375 24.015625 40.404015 24.015625 36 C 24.015625 31.595988 27.595985 28.015625 32 28.015625 z M 32 28.957031 C 28.103666 28.957031 24.957031 32.103669 24.957031 36 C 24.957031 39.896334 28.103666 43.044922 32 43.044922 C 35.896334 43.044922 39.044922 39.896334 39.044922 36 C 39.044922 32.103669 35.896334 28.957031 32 28.957031 z M 35.992188 32.535156 A 0.70457537 0.70457537 0 0 1 36.484375 33.75 L 30.007812 40.228516 L 27.517578 37.734375 A 0.70457537 0.70457537 0 1 1 28.513672 36.738281 L 30.007812 38.234375 L 35.488281 32.753906 A 0.70457537 0.70457537 0 0 1 35.992188 32.535156 z "
       transform="matrix(0.8,0,0,-0.8,0,51.2)"
       id="rect836" /></g></svg>

<svg xmlns="http://www.w3.org/2000/svg" xml:space="preserve" width="64" height="64"><path d="M22 18v3h20v-3zm0 5v1h20v-1z" style="color:#000;clip-rule:nonzero;display:inline;overflow:visible;visibility:visible;opacity:1;isolation:auto;mix-blend-mode:normal;color-interpolation:sRGB;color-interpolation-filters:linearRGB;solid-color:#000;solid-opacity:1;vector-effect:none;fill:#fff;fill-opacity:1;fill-rule:nonzero;stroke:none;stroke-width:1.24721909;stroke-linecap:round;stroke-linejoin:bevel;stroke-miterlimit:0;stroke-dasharray:none;stroke-dashoffset:0;stroke-opacity:1;paint-order:stroke fill markers;color-rendering:auto;image-rendering:auto;shape-rendering:auto;text-rendering:auto"/><path d="M20 22v3h24v-3zm0 5v.75h8.457a8.9 8.9 0 0 1 7.086 0H44V27z" style="color:#000;clip-rule:nonzero;display:inline;overflow:visible;visibility:visible;opacity:1;isolation:auto;mix-blend-mode:normal;color-interpolation:sRGB;color-interpolation-filters:linearRGB;solid-color:#000;solid-opacity:1;vector-effect:none;fill:#fff;fill-opacity:1;fill-rule:nonzero;stroke:none;stroke-width:1.13038826;stroke-linecap:round;stroke-linejoin:bevel;stroke-miterlimit:0;stroke-dasharray:none;stroke-dashoffset:0;stroke-opacity:1;paint-order:stroke fill markers;color-rendering:auto;image-rendering:auto;shape-rendering:auto;text-rendering:auto"/><path d="M18 26v20h28V26zm14 2.016c4.404 0 7.984 3.58 7.984 7.984s-3.58 7.984-7.984 7.984-7.984-3.58-7.984-7.984 3.58-7.984 7.984-7.984m0 .941A7.035 7.035 0 0 0 24.957 36 7.036 7.036 0 0 0 32 43.045 7.04 7.04 0 0 0 39.045 36 7.036 7.036 0 0 0 32 28.957m3.992 3.578a.705.705 0 0 1 .492 1.215l-6.476 6.479-2.49-2.495a.705.705 0 1 1 .996-.996l1.494 1.496 5.48-5.48a.7.7 0 0 1 .504-.219" style="color:#000;clip-rule:nonzero;display:inline;overflow:visible;visibility:visible;opacity:1;isolation:auto;mix-blend-mode:normal;color-interpolation:sRGB;color-interpolation-filters:linearRGB;solid-color:#000;solid-opacity:1;vector-effect:none;fill:#fff;fill-opacity:1;fill-rule:nonzero;stroke:none;stroke-width:2;stroke-linecap:round;stroke-linejoin:bevel;stroke-miterlimit:0;stroke-dasharray:none;stroke-dashoffset:0;stroke-opacity:1;paint-order:stroke fill markers;color-rendering:auto;image-rendering:auto;shape-rendering:auto;text-rendering:auto"/></svg>
